public/svg/footer-google.svg

<svg width="35" height="35" viewBox="0 0 35 35" fill="none" xmlns="http://www.w3.org/2000/svg">
<rect width="35" height="35" rx="4" fill="white"/>
<g clip-path="url(#clip0_211_5993)">
<path d="M17.1797 16.7136V19.7983H22.2861C22.0779 21.1224 20.742 23.6801 17.1797 23.6801C14.1096 23.6801 11.6014 21.1371 11.6014 17.9994C11.6014 14.8618 14.109 12.3188 17.1797 12.3188C18.9285 12.3188 20.1007 13.0601 20.7684 13.7047L23.2091 11.3524C21.642 9.89044 19.6114 9 17.1797 9C12.2049 9 8.17969 13.0224 8.17969 18C8.17969 22.9776 12.2049 27 17.1797 27C22.3738 27 25.8225 23.3494 25.8225 18.2053C25.8225 17.6136 25.7578 17.1624 25.6791 16.7141L17.1797 16.7136Z" fill="#2E6092"/>
</g>
<defs>
<clipPath id="clip0_211_5993">
<rect width="18" height="18" fill="white" transform="translate(8 9)"/>
</clipPath>
</defs>
</svg>

<svg xmlns="http://www.w3.org/2000/svg" width="35" height="35" fill="none"><rect width="35" height="35" fill="#fff" rx="4"/><g clip-path="url(#a)"><path fill="#2E6092" d="M17.18 16.714v3.084h5.106c-.208 1.324-1.544 3.882-5.106 3.882-3.07 0-5.579-2.543-5.579-5.68 0-3.138 2.508-5.681 5.579-5.681 1.749 0 2.92.741 3.588 1.386l2.441-2.353C21.642 9.89 19.611 9 17.18 9c-4.974 0-9 4.022-9 9s4.026 9 9 9c5.195 0 8.644-3.65 8.644-8.795 0-.591-.065-1.043-.144-1.49z"/></g><defs><clipPath id="a"><path fill="#fff" d="M8 9h18v18H8z"/></clipPath></defs></svg>
